src/icons/SVG/48px/Universe_Curtains_48px.svg

<svg width="48" height="48" viewBox="0 0 48 48" fill="none" xmlns="http://www.w3.org/2000/svg">
<g id="Square"> </g>
<g id="Icon">
<path id="Union" fill-rule="evenodd" clip-rule="evenodd" d="M6 4.5C5.17157 4.5 4.5 5.17157 4.5 6C4.5 6.82843 5.17157 7.5 6 7.5H8.5V28V42C8.5 42.8284 9.17157 43.5 10 43.5H18C18.4707 43.5 18.9141 43.2791 19.1975 42.9033C19.481 42.5275 19.5716 42.0405 19.4423 41.5879L19.1315 40.5H28.8685L28.5577 41.5879C28.4284 42.0405 28.519 42.5275 28.8025 42.9033C29.0859 43.2791 29.5293 43.5 30 43.5H38C38.8284 43.5 39.5 42.8284 39.5 42V28V7.5H42C42.8284 7.5 43.5 6.82843 43.5 6C43.5 5.17157 42.8284 4.5 42 4.5H38H24H10H6ZM29.7257 37.5L31.5828 31H25V37.5H29.7257ZM23 37.5V31H16.4172L18.2743 37.5H23ZM23 29H16.2493C17.3687 28.5622 18.7548 27.7497 20.1099 26.259C21.1505 25.1144 22.1502 23.5966 23 21.5851V29ZM31.7507 29H25V21.5851C25.8498 23.5966 26.8495 25.1144 27.8901 26.259C29.2452 27.7497 30.6313 28.5622 31.7507 29ZM11.5 26.5V7.5H22.4837C22.2673 17.2777 19.9397 21.9864 17.8901 24.241C16.8149 25.4237 15.7739 25.9811 15.0461 26.2479C14.6786 26.3827 14.3839 26.4458 14.1968 26.4752C14.1033 26.4899 14.0371 26.4961 14.0026 26.4986L13.9814 26.5H11.5ZM36.5 7.5H25.5163C25.7327 17.2777 28.0603 21.9864 30.1099 24.241C31.1851 25.4237 32.2261 25.9811 32.9539 26.2479C33.3214 26.3827 33.6161 26.4458 33.8032 26.4752C33.8967 26.4899 33.9629 26.4961 33.9974 26.4986L34.0165 26.4999L34.0186 26.5H36.5V7.5ZM31.9886 40.5L35.1315 29.5H36.5V40.5H31.9886ZM11.5 29.5H12.8685L16.0114 40.5H11.5V29.5Z" fill="black"/>
</g>
</svg>

<svg xmlns="http://www.w3.org/2000/svg" viewBox="0 0 48 48">
  <g id="Square"> </g>
  <path fill-rule="evenodd" d="M6 4.5a1.5 1.5 0 100 3h2.5V42a1.5 1.5 0 001.5 1.5h8a1.5 1.5 0 001.442-1.912l-.31-1.088h9.736l-.31 1.088A1.5 1.5 0 0030 43.5h8a1.5 1.5 0 001.5-1.5V7.5H42a1.5 1.5 0 000-3H6zm23.726 33l1.857-6.5H25v6.5h4.726zM23 37.5V31h-6.583l1.857 6.5H23zm0-8.5h-6.75c1.119-.438 2.505-1.25 3.86-2.741 1.04-1.145 2.04-2.662 2.89-4.674V29zm8.75 0H25v-7.415c.85 2.012 1.85 3.53 2.89 4.674 1.355 1.49 2.741 2.303 3.86 2.741zM11.5 26.5v-19h10.984c-.217 9.778-2.544 14.486-4.594 16.741-1.075 1.183-2.116 1.74-2.844 2.007a4.543 4.543 0 01-.85.227 2.39 2.39 0 01-.193.024l-.022.001H11.5zm25-19H25.516c.217 9.778 2.544 14.486 4.594 16.741 1.075 1.183 2.116 1.74 2.844 2.007.367.135.662.198.85.227.093.015.159.021.193.024h.02l.002.001H36.5v-19zm-4.511 33l3.143-11H36.5v11h-4.511zM11.5 29.5h1.368l3.143 11H11.5v-11z"/>
</svg>
